tipitek/img/manager-icon-2.svg

<svg width="60" height="60" viewBox="0 0 60 60" fill="none" xmlns="http://www.w3.org/2000/svg">
<rect width="60" height="59.997" rx="13.0472" fill="#30CBFF" fill-opacity="0.1"/>
<g clip-path="url(#clip0_437_1090)">
<path d="M37.4164 42.2394H38.1681C38.7398 42.2394 39.097 41.6206 38.8112 41.1256L30.6757 27.0352C30.3899 26.5402 29.6754 26.5402 29.3895 27.0352L21.254 41.1256C20.9682 41.6206 21.3255 42.2394 21.8971 42.2394H34.9199M38.823 20.131L36.0397 24.9516C39.7144 27.047 42.1972 31.0022 42.1972 35.5263H47.7584C47.7584 28.9358 44.1611 23.1854 38.823 20.131ZM38.823 20.131C36.2321 18.6487 33.2313 17.8014 30.0326 17.8014C28.3054 17.8014 26.6361 18.0484 25.0577 18.509M12.9765 39.8608C12.9609 39.964 12.953 40.0683 12.9531 40.1728C12.9531 41.3141 13.8785 42.2394 15.0198 42.2394C16.1613 42.2394 17.0867 41.3141 17.0867 40.1728C17.0867 39.0314 16.1613 38.106 15.0198 38.106C14.8728 38.106 14.7294 38.1214 14.5911 38.1506M16.7331 23.8078C13.9781 26.9316 12.3066 31.0338 12.3066 35.5263H17.8677C17.8677 31.0021 20.3505 27.047 24.0252 24.9515L21.242 20.131M21.242 20.131C20.1973 20.7289 19.216 21.4314 18.3133 22.2276M21.242 20.131C21.7198 19.8576 22.2103 19.6067 22.7115 19.379M24.0251 24.9515C25.7983 23.9404 27.849 23.3622 30.0323 23.3622C32.2155 23.3622 34.2663 23.9404 36.0395 24.9515M18.74 23.8195L17.6977 19.93C17.6303 19.6781 17.3154 19.5937 17.131 19.7781L14.2835 22.6254C14.0991 22.8098 14.1835 23.1247 14.4354 23.1922L18.3251 24.2343C18.577 24.3018 18.8074 24.0713 18.74 23.8195ZM30.0325 36.2634C29.5936 36.2634 29.2311 35.9203 29.2072 35.482L29.0246 32.1445C28.993 31.5662 29.4533 31.0801 30.0325 31.0801C30.6116 31.0801 31.072 31.5662 31.0404 32.1445L30.8578 35.482C30.8338 35.9203 30.4714 36.2634 30.0325 36.2634ZM31.0788 39.1645C31.0788 39.7424 30.6103 40.2109 30.0324 40.2109C29.4545 40.2109 28.986 39.7424 28.986 39.1645C28.986 38.5866 29.4545 38.1182 30.0324 38.1182C30.6103 38.1182 31.0788 38.5866 31.0788 39.1645ZM42.9781 40.1727C42.9781 39.0313 43.9035 38.106 45.0449 38.106C46.1863 38.106 47.1117 39.0313 47.1117 40.1727C47.1117 41.3141 46.1863 42.2394 45.0449 42.2394C43.9035 42.2394 42.9781 41.3141 42.9781 40.1727Z" stroke="#30CBFF" stroke-width="1.2" stroke-miterlimit="10" stroke-linecap="round" stroke-linejoin="round"/>
</g>
<defs>
<clipPath id="clip0_437_1090">
<rect width="36.5217" height="36.5199" fill="white" transform="translate(11.7402 11.7383)"/>
</clipPath>
</defs>
</svg>

<svg width="60" height="60" fill="none" xmlns="http://www.w3.org/2000/svg"><rect width="60" height="59.997" rx="13.047" fill="#30CBFF" fill-opacity=".1"/><g clip-path="url(#clip0_437_1090)"><path d="M37.416 42.24h.752a.743.743 0 0 0 .643-1.114l-8.135-14.09a.743.743 0 0 0-1.286 0l-8.136 14.09a.743.743 0 0 0 .643 1.113H34.92m3.903-22.108l-2.783 4.82c3.674 2.096 6.157 6.051 6.157 10.575h5.561c0-6.59-3.597-12.34-8.935-15.395zm0 0a17.646 17.646 0 0 0-8.79-2.33c-1.728 0-3.397.247-4.975.708M12.976 39.861a2.067 2.067 0 1 0 1.615-1.71m2.142-14.343a17.657 17.657 0 0 0-4.426 11.718h5.56c0-4.524 2.483-8.479 6.158-10.575l-2.783-4.82m0 0a17.776 17.776 0 0 0-2.929 2.097m2.929-2.097a17.7 17.7 0 0 1 1.47-.752m1.313 5.572a12.091 12.091 0 0 1 6.007-1.589c2.183 0 4.234.578 6.007 1.59M18.74 23.819l-1.042-3.889a.339.339 0 0 0-.567-.152l-2.848 2.847c-.184.185-.1.5.152.567l3.89 1.042a.339.339 0 0 0 .415-.415zm11.293 12.444a.827.827 0 0 1-.826-.781l-.182-3.337a1.01 1.01 0 1 1 2.015 0l-.182 3.337a.827.827 0 0 1-.826.781zm1.046 2.901a1.046 1.046 0 1 1-2.093 0 1.046 1.046 0 0 1 2.093 0zm11.9 1.009a2.067 2.067 0 1 1 4.133 0 2.067 2.067 0 0 1-4.134 0z" stroke="#30CBFF" stroke-width="1.2" stroke-miterlimit="10" stroke-linecap="round" stroke-linejoin="round"/></g><defs><clipPath id="clip0_437_1090"><path fill="#fff" transform="translate(11.74 11.738)" d="M0 0h36.522v36.52H0z"/></clipPath></defs></svg>
